X:1
T:If the Savior Journey with Me
T:If the Savior Journey with Me
T:William Howard Doane
T:Daniel Boardman Purinton, 1898
T:Public Domain Courtesy of the Cyber Hymnal™
T:Public Domain Courtesy of the Cyber Hymnal™
C:William Howard Doane
Z:Public Domain
Z:Courtesy of the Cyber Hymnal™
%%score ( 1 2 ) ( 3 4 )
L:1/8
Q:1/4=90
M:3/4
K:Db
V:1 treble 
V:2 treble 
V:3 bass 
V:4 bass 
V:1
 [DF]>[EG] | [FA]3 [DF] [GB]>[FA] | [FA] [EG]3 [CE]>[DF] | [EG]3 [CE] [FA]>[EG] | [DF]4 [DF]>[EG] | %5
w: 1.~If the|Sav- ior jour- ney|with me, If He|be my con- stant|stay, If His|
w: 2.~If the|Sav- ior jour- ney|with me, If He|be my faith- ful|friend, If He|
w: 3.~If the|Sav- ior jour- ney|with me, If He|keep me at His|side, If He|
 [FA]3 [DF] [GB]>[FA] | [FA] [Fd]3 [FA]>[_FB] | [Ec]3 [DB] [DF][D=G] | [CA]4 [GB]>[FA] | %9
w: pre- sence guide and|keep me, Thro’ the|dark and thro’ the|day; I will|
w: ne- ver cease to|love me, Love and|keep me to the|end; I will|
w: shield me from the|dan- gers That a-|long my path may|hide; I will|
 [EG]>[=DF] [EG]2 [FA]>[EG] | [DF]>[D=E] [DF]2 [FA]>[DF] | [EG]>[=DF] [EG][FA] [Ac][GB] | %12
w: fear no harm, dread no|fierce a- larm; He for|me the path of peace is|
w: seek His face, I will|plead His grace, Trust my|life to Him who ev- er|
w: ne- ver stray from the|per- fect way, Till at|last I stand with- in the|
 [=EB]2 [FA]2 [DF]>[_EG] | [FA][DF] [Fd]3 [Ac] | [Ac] [GB]3 [GB]>[=EB] | %15
w: seek- ing, And the|voice of love is|speak- ing, While He|
w: liv- eth, Give my|all to Him who|giv- eth Love di-|
w: por- tal Of the|dwell- ing place im-|mor- tal, Where the|
 [FA]>[DF] [EG][CE] [CA]>D | D4 ||"^Refrain" [FA]>[FA] | [EA]3 [EA] [EB][Ec] | %19
w: safe- ly guards me all the|way.|||
w: vine, that naught can e’er tran-|scend.|If the|Sav- ior jour- ney|
w: blest of God shall e’er a-|bide.|||
 [Ge] [Fd]3 [DF]>[GB] | [FA][EG] [EG]3 [CA] | [EG] [DF]3 [DF]>[FA] | [Fd]3 [Ac] [Ae][Ad] | %23
w: ||||
w: with me, If His|guid- ing hand He|give me, If His|lov- ing heart re-|
w: ||||
 [Gd] !fermata![GB]3 [GB]>[=EB] | [FA]>[DF] [EG][CE] !fermata![CA]>D | D4 |] %26
w: |||
w: ceive me, I will|love and trust Him all the|way.|
w: |||
V:2
 x2 | x6 | x6 | x6 | x6 | x6 | x6 | x6 | x6 | x6 | x6 | x6 | x6 | x6 | x6 | x11/2 D/ | D4 || x2 | %18
 x6 | x6 | x6 | x6 | x6 | x6 | x11/2 D/ | D4 |] %26
V:3
 [D,A,]>[D,A,] | [D,D]3 [D,D] [D,D]>[D,A,] | [A,,A,] [A,,A,]3 [A,,A,]>[A,,A,] | %3
 [A,,A,]3 [A,,A,] [A,,A,]>[A,,A,] | [D,A,]4 [D,A,]>[D,A,] | [D,D]3 [D,D] [D,D]>[D,D] | %6
 [D,D] [D,A,]3 [D,A,]>[D,A,] | [E,A,]3 [E,G,] [E,B,][E,B,] | [A,,A,]4 [A,,A,]>[A,,A,] | %9
 [A,,A,]>[A,,A,] [A,,A,]2 [A,,A,]>[C,A,] | [D,A,]>[D,=G,] [D,A,]2 [D,A,]>[D,A,] | %11
 [A,,A,]>[A,,A,] [A,,A,][A,,A,] [A,,A,][C,A,] | [D,=G,]2 [D,A,]2 [D,A,]>[D,A,] | %13
 [D,D][D,A,] [D,A,]3 [F,D] | [G,D] [G,D]3 [G,D]>[^G,D] | [A,D]>A, A,A, [A,,G,]>[D,F,] | [D,F,]4 || %17
 [D,D]>[F,D] | [A,C]3 [A,C] [=G,D][_G,A,] | [D,A,] [D,A,]3 [D,A,]>[D,A,] | %20
 [A,,A,][A,,A,] [A,,A,]3 [A,,A,] | [D,A,] [D,A,]3 [D,A,]>[D,A,] | [D,A,]3 [F,D] [F,D][F,_C] | %23
 [G,B,] [G,D]3 [G,D]>[=G,D] | [A,D]>A, A,A, !fermata![A,,G,]>[D,F,] | [D,F,]4 |] %26
V:4
 x2 | x6 | x6 | x6 | x6 | x6 | x6 | x6 | x6 | x6 | x6 | x6 | x6 | x6 | x6 | x3/2 A,/ A,A, x2 | %16
 x4 || x2 | x6 | x6 | x6 | x6 | x6 | x6 | x3/2 A,/ A,A, x2 | x4 |] %26

